X: 0
T: Immortal Babe, Who This Dear Day
Z: German Fok Melody
Z: Copyright © 2003 by Douglas D. Anderson
Z: Released To The Public Domain
L: 1/4
M: 4/4
Q: 1/4=120
V: P1 name="Staff"
%%MIDI program 1 19
K: G
[V: P1]  G | A A G E | D E G B | d e d (B/A/) | G E G B | B A B G | A A B G | E D E3/ F/ | G G G|]
w: Im- mor tal Babe, who this dear day Didst change thine Hea- ven_ for our clay, And didst with flesh thy god- head veil, E- ter nal Son of God, all hail!

